X: 263
P: Longways for six
M: 6/4
L: 1/4
K: D
d>ed e>de | f>ef efg | a>gf e>dc | d3- d2 |] d |\
ecA ecA | ecA ecA |
afd afd | afd afd |\
ecA ecA | ecA e2f/g/ | a>gf e>dc | d3- d2 |]

